src/images/clients/stevemadden.svg

<svg width="184" height="28" viewBox="0 0 184 28" fill="none" xmlns="http://www.w3.org/2000/svg">
<path d="M4.67777 18.5908V21.0292C4.67777 22.357 4.79848 22.8398 4.94333 23.1537C5.37789 24.0952 6.15044 24.1918 6.8747 24.1918C7.3334 24.1918 8.10595 24.1435 8.58879 23.6607C8.97506 23.202 9.02335 22.3329 9.02335 21.85V20.0635C9.02335 18.9771 8.63707 17.939 7.62311 16.9974L3.08439 12.8209C2.38427 12.169 1.75658 11.5413 1.27373 10.6964C0.597755 9.56168 0.380476 8.427 0.380476 7.19576V5.02297C0.380476 3.74343 1.00817 2.4639 1.85314 1.64307C3.39824 0.218687 5.9573 0.0979767 6.92299 0.0979767C8.46808 0.0979767 10.327 0.339398 11.7755 1.7155C13.1999 3.11574 13.3206 4.80569 13.3206 5.86794V8.62014H8.90264V6.37492C8.90264 5.74723 8.95092 5.14368 8.39565 4.51598C8.00938 4.08142 7.5024 3.88829 6.8747 3.88829C6.34358 3.88829 5.64345 4.03314 5.25718 4.41941C4.82262 4.85397 4.79848 5.36095 4.79848 5.8438V7.07504C4.79848 8.04073 5.06404 8.54771 5.88488 9.29612L10.4236 13.4486C11.8963 14.8005 13.4414 16.3215 13.4414 19.1944V22.2846C13.4414 23.5641 13.2965 25.0851 11.8963 26.437C10.4719 27.8373 8.75778 27.9821 7.14026 27.9821C5.71588 27.9821 4.07422 27.7407 2.60155 26.7509C0.573613 25.3748 0.259766 23.3227 0.259766 21.9707V18.5908H4.67777Z" fill="black"/>
<path d="M19.7666 27.62V4.2987H14.9865V0.484244H28.8682V4.27455H24.1846V27.5958H19.7666V27.62Z" fill="black"/>
<path d="M31.1858 0.484244H42.5084V4.27455H35.6038V10.7929H40.9633V14.5832H35.6038V23.8055H43.0878V27.5958H31.1858V0.484244Z" fill="black"/>
<path d="M48.8578 27.62L44.3915 0.484244H49.051L51.4893 19.2427L53.9277 0.484244H58.5871L54.1208 27.62H48.8578Z" fill="black"/>
<path d="M60.8806 0.484244H72.2032V4.27455H65.2986V10.7929H70.6581V14.5832H65.2986V23.8055H72.7826V27.5958H60.8806V0.484244Z" fill="black"/>
<path d="M91.8791 27.62L88.6923 7.19575H88.4992L88.7406 10.7929V27.62H84.3226V0.484244H91.2997L93.8829 18.0114H94.0277L96.6351 0.484244H103.612V27.62H99.1941V10.7929L99.4355 7.19575H99.2424L96.0556 27.62H91.8791Z" fill="black"/>
<path d="M116.77 27.62L115.997 22.6226H111.265L110.493 27.62H105.93L110.903 0.484244H116.335L121.332 27.62H116.77ZM115.49 18.8322L113.679 8.01658H113.607L111.796 18.8322H115.49Z" fill="black"/>
<path d="M123.626 0.484244H131.955C132.8 0.484244 134.369 0.55667 135.649 1.81206C137.121 3.23644 137.121 4.99882 137.121 6.61634V21.1016C137.121 22.695 137.001 24.8195 135.335 26.3404C134.104 27.4993 132.631 27.62 131.545 27.62H123.626V0.484244ZM130.217 23.9504C131.303 23.9504 132.003 23.4434 132.269 23.0088C132.655 22.4777 132.703 21.1982 132.703 20.5705V7.31646C132.703 6.61634 132.752 5.69894 132.245 5.02296C131.738 4.37112 131.086 4.27455 130.434 4.27455H128.068V23.9262H130.217V23.9504Z" fill="black"/>
<path d="M139.705 0.484244H148.034C148.879 0.484244 150.448 0.55667 151.727 1.81206C153.2 3.23644 153.2 4.99882 153.2 6.61634V21.1016C153.2 22.695 153.079 24.8195 151.413 26.3404C150.182 27.4993 148.71 27.62 147.623 27.62H139.729V0.484244H139.705ZM146.295 23.9504C147.382 23.9504 148.082 23.4434 148.347 23.0088C148.734 22.4777 148.782 21.1982 148.782 20.5705V7.31646C148.782 6.61634 148.83 5.69894 148.323 5.02296C147.816 4.37112 147.164 4.27455 146.513 4.27455H144.147V23.9262H146.295V23.9504Z" fill="black"/>
<path d="M155.783 0.484244H167.106V4.27455H160.201V10.7929H165.561V14.5832H160.201V23.8055H167.685V27.5958H155.783V0.484244Z" fill="black"/>
<path d="M179.008 27.62L174.397 11.6138L174.252 11.662L174.445 14.7281V27.6441H170.027V0.484244H174.904L179.442 15.7903H179.563L179.322 12.9174V0.484244H183.74V27.62H179.008Z" fill="black"/>
</svg>

<svg xmlns="http://www.w3.org/2000/svg" width="184" height="28" fill="none" viewBox="0 0 184 28"><path fill="#000" d="M4.678 18.59v2.44c0 1.327.12 1.81.265 2.124.435.941 1.207 1.038 1.932 1.038.458 0 1.231-.049 1.714-.531.386-.459.434-1.328.434-1.811v-1.787c0-1.086-.386-2.124-1.4-3.066l-4.539-4.176c-.7-.652-1.327-1.28-1.81-2.125C.598 9.562.38 8.427.38 7.196V5.023c0-1.28.628-2.56 1.473-3.38C3.398.22 5.957.098 6.923.098c1.545 0 3.404.241 4.852 1.617 1.425 1.4 1.546 3.09 1.546 4.153V8.62H8.903V6.375c0-.628.048-1.231-.507-1.859-.387-.435-.894-.628-1.521-.628-.531 0-1.232.145-1.618.531-.434.435-.459.942-.459 1.425v1.231c0 .966.266 1.473 1.087 2.221l4.539 4.153c1.472 1.351 3.017 2.873 3.017 5.745v3.09c0 1.28-.145 2.801-1.545 4.153-1.424 1.4-3.138 1.545-4.756 1.545-1.424 0-3.066-.241-4.538-1.231C.574 25.375.26 23.323.26 21.97v-3.38h4.418ZM19.767 27.62V4.299h-4.78V.484h13.881v3.79h-4.683v23.322h-4.418v.024ZM31.186.484h11.322v3.79h-6.904v6.519h5.36v3.79h-5.36v9.222h7.484v3.79H31.186V.486ZM48.858 27.62 44.392.484h4.659l2.438 18.759L53.928.484h4.66L54.12 27.62h-5.263ZM60.88.484h11.323v3.79H65.3v6.519h5.36v3.79h-5.36v9.222h7.484v3.79H60.88V.486ZM91.88 27.62 88.691 7.196H88.5l.242 3.597V27.62h-4.418V.484H91.3l2.583 17.527h.145L96.635.484h6.977V27.62h-4.418V10.793l.242-3.597h-.194L96.056 27.62h-4.177ZM116.77 27.62l-.773-4.997h-4.732l-.772 4.997h-4.563L110.903.484h5.432l4.997 27.136h-4.562Zm-1.28-8.788-1.811-10.815h-.072l-1.811 10.815h3.694ZM123.626.484h8.329c.845 0 2.414.073 3.694 1.328 1.472 1.424 1.472 3.187 1.472 4.804v14.486c0 1.593-.12 3.718-1.786 5.238-1.231 1.16-2.704 1.28-3.79 1.28h-7.919V.484Zm6.591 23.466c1.086 0 1.786-.507 2.052-.941.386-.531.434-1.81.434-2.439V7.316c0-.7.049-1.617-.458-2.293-.507-.652-1.159-.748-1.811-.748h-2.366v19.651h2.149v.024ZM139.705.484h8.329c.845 0 2.414.073 3.693 1.328C153.2 3.236 153.2 5 153.2 6.616v14.486c0 1.593-.121 3.718-1.787 5.238-1.231 1.16-2.703 1.28-3.79 1.28h-7.894V.484h-.024Zm6.59 23.466c1.087 0 1.787-.507 2.052-.941.387-.531.435-1.81.435-2.439V7.316c0-.7.048-1.617-.459-2.293-.507-.652-1.159-.748-1.81-.748h-2.366v19.651h2.148v.024ZM155.783.484h11.323v3.79h-6.905v6.519h5.36v3.79h-5.36v9.222h7.484v3.79h-11.902V.486ZM179.008 27.62l-4.611-16.006-.145.048.193 3.066v12.916h-4.418V.484h4.877l4.538 15.306h.121l-.241-2.873V.484h4.418V27.62h-4.732Z"/></svg>
